src/icons/react.svg

<svg width="64" height="57" viewBox="0 0 64 57" fill="none" xmlns="http://www.w3.org/2000/svg">
<g clip-path="url(#clip0)">
<path d="M32.0005 34.0804C35.1522 34.0804 37.7071 31.5255 37.7071 28.3738C37.7071 25.2221 35.1522 22.6672 32.0005 22.6672C28.8488 22.6672 26.2939 25.2221 26.2939 28.3738C26.2939 31.5255 28.8488 34.0804 32.0005 34.0804Z" fill="#00D8FF"/>
<path d="M31.9998 41.4465C23.9856 41.4465 16.9831 40.503 11.7426 38.7069C8.34367 37.5474 5.45629 36.0014 3.39874 34.2394C1.21614 32.3751 0.0566406 30.3403 0.0566406 28.3737C0.0566406 24.5996 4.19447 20.9051 11.1401 18.4952C16.824 16.5172 24.2357 15.4146 31.9884 15.4146C39.6048 15.4146 46.9142 16.4831 52.5639 18.4384C55.8719 19.5751 58.657 21.0529 60.635 22.6899C62.7835 24.486 63.9202 26.4526 63.9202 28.3737C63.9202 32.2955 59.2936 36.2629 51.8364 38.7296C46.5618 40.4803 39.5138 41.4465 31.9998 41.4465ZM31.9998 18.1428C24.6449 18.1428 17.3696 19.2114 12.0495 21.0643C5.6609 23.2923 2.79625 26.3389 2.79625 28.3737C2.79625 30.4881 5.87689 33.8188 12.6293 36.1264C17.5856 37.8202 24.2925 38.7183 31.9998 38.7183C39.2296 38.7183 45.9707 37.8089 50.9838 36.1378C57.9977 33.8074 61.2034 30.4767 61.2034 28.3737C61.2034 27.2938 60.3849 26.0206 58.8957 24.7815C57.1792 23.3492 54.6783 22.0419 51.6886 21.0074C46.3117 19.1659 39.3206 18.1428 31.9998 18.1428Z" fill="#00D8FF"/>
<path d="M19.0525 56.8156C17.893 56.8156 16.8699 56.5656 16.006 56.0654C12.7435 54.1784 11.6067 48.7446 12.9822 41.5261C14.1076 35.6036 16.8586 28.6466 20.7349 21.9283C24.5431 15.335 29.1129 9.5375 33.6259 5.61565C36.2632 3.31938 38.9346 1.63696 41.3445 0.750286C43.9705 -0.215966 46.244 -0.215966 47.9037 0.738919C51.3026 2.69416 52.428 8.69629 50.8366 16.3808C49.7112 21.8373 47.0284 28.4192 43.2771 34.9329C39.2756 41.8672 34.9559 47.4601 30.784 51.1091C28.0785 53.4736 25.2934 55.2014 22.747 56.0995C21.417 56.5769 20.1666 56.8156 19.0525 56.8156ZM21.9058 22.6103L23.0881 23.2924C19.4163 29.6583 16.6994 36.4902 15.6536 42.0377C14.3918 48.6878 15.6081 52.6892 17.3587 53.7009C17.7907 53.951 18.3591 54.0874 19.0525 54.0874C21.3147 54.0874 24.8728 52.6551 28.9879 49.0629C32.9325 45.6185 37.0589 40.2529 40.9126 33.5801C44.5275 27.3165 47.0966 21.0188 48.1652 15.8466C49.6543 8.60535 48.3698 4.17196 46.5396 3.11476C45.6074 2.58048 44.0955 2.64869 42.2767 3.31938C40.1737 4.09238 37.7978 5.60428 35.4106 7.68457C31.125 11.4132 26.7484 16.9606 23.0881 23.3037L21.9058 22.6103Z" fill="#00D8FF"/>
<path d="M44.9476 56.8497C41.8556 56.8497 37.9337 54.9854 33.8414 51.4614C29.2716 47.5282 24.6222 41.6739 20.7344 34.9556C16.9149 28.3623 14.1867 21.5076 13.0385 15.6305C12.3678 12.1975 12.2428 9.04864 12.6748 6.51365C13.1522 3.75131 14.2776 1.7847 15.9487 0.818445C19.3362 -1.14816 25.0996 0.875284 30.9654 6.09305C35.1259 9.78754 39.4911 15.4032 43.2538 21.9055C47.2666 28.8398 49.9607 35.3762 51.0293 40.8099C51.7227 44.3339 51.8364 47.6078 51.3476 50.2678C50.8247 53.0984 49.6424 55.1105 47.9373 56.0994C47.0847 56.5996 46.073 56.8497 44.9476 56.8497ZM23.0989 33.5914C26.782 39.9573 31.3519 45.7208 35.6261 49.3925C40.7529 53.8032 44.8225 54.7581 46.5845 53.735C48.4147 52.6778 49.7561 48.3467 48.3693 41.3442C47.3462 36.206 44.7657 29.9538 40.9007 23.281C37.2744 17.0174 33.1025 11.6405 29.1579 8.13923C23.6332 3.22839 19.1543 2.12573 17.3241 3.18292C16.392 3.7172 15.6986 5.06996 15.3689 6.97972C14.9938 9.18505 15.1074 12.0042 15.7213 15.1076C16.8126 20.6891 19.4272 27.2483 23.0989 33.5914Z" fill="#00D8FF"/>
</g>
<defs>
<clipPath id="clip0">
<rect width="64" height="56.952" fill="white"/>
</clipPath>
</defs>
</svg>

<svg xmlns="http://www.w3.org/2000/svg" fill="none" viewBox="0 0 64 57"><defs/><g fill="#00D8FF" clip-path="url(#clip0)"><path d="M32 34.08a5.7 5.7 0 100-11.41 5.7 5.7 0 000 11.41z"/><path d="M32 41.45c-8.01 0-15.02-.95-20.26-2.74a25.74 25.74 0 01-8.34-4.47C1.22 32.38.06 30.34.06 28.37c0-3.77 4.13-7.46 11.08-9.87 5.68-1.98 13.1-3.09 20.85-3.09 7.61 0 14.92 1.07 20.57 3.03 3.31 1.14 6.1 2.61 8.07 4.25 2.15 1.8 3.29 3.76 3.29 5.68 0 3.93-4.63 7.9-12.08 10.36-5.28 1.75-12.33 2.72-19.84 2.72zm0-23.3c-7.36 0-14.63 1.06-19.95 2.91-6.39 2.23-9.25 5.28-9.25 7.31 0 2.12 3.08 5.45 9.83 7.76 4.96 1.69 11.66 2.59 19.37 2.59 7.23 0 13.97-.91 18.98-2.58C58 33.8 61.2 30.48 61.2 28.37c0-1.08-.82-2.35-2.3-3.59a23.4 23.4 0 00-7.21-3.77C46.3 19.17 39.32 18.14 32 18.14z"/><path d="M19.05 56.82a6 6 0 01-3.04-.75c-3.27-1.9-4.4-7.33-3.03-14.54 1.13-5.93 3.88-12.88 7.75-19.6 3.81-6.6 8.38-12.4 12.9-16.31 2.63-2.3 5.3-3.98 7.71-4.87 2.63-.97 4.9-.97 6.56-.01 3.4 1.95 4.53 7.96 2.94 15.64-1.13 5.46-3.81 12.04-7.56 18.55-4 6.94-8.32 12.53-12.5 16.18-2.7 2.36-5.49 4.1-8.03 4.99-1.33.48-2.58.72-3.7.72zm2.86-34.21l1.18.68c-3.67 6.37-6.4 13.2-7.44 18.75-1.26 6.65-.04 10.65 1.7 11.66.44.25 1 .39 1.7.39 2.26 0 5.82-1.43 9.94-5.03 3.94-3.44 8.07-8.8 11.92-15.48 3.62-6.26 6.19-12.56 7.26-17.73 1.48-7.24.2-11.68-1.63-12.74-.93-.53-2.44-.46-4.26.2-2.1.78-4.48 2.3-6.87 4.37-4.28 3.73-8.66 9.28-12.32 15.62l-1.18-.69z"/><path d="M44.95 56.85c-3.1 0-7.02-1.86-11.1-5.39-4.58-3.93-9.23-9.79-13.12-16.5-3.82-6.6-6.54-13.45-7.7-19.33-.66-3.43-.79-6.58-.36-9.12.48-2.76 1.6-4.73 3.28-5.7 3.39-1.96 9.15.07 15.02 5.28 4.16 3.7 8.52 9.31 12.28 15.82 4.02 6.93 6.71 13.47 7.78 18.9.7 3.52.8 6.8.32 9.46-.53 2.83-1.7 4.84-3.41 5.83-.86.5-1.87.75-3 .75zM23.1 33.59c3.68 6.37 8.25 12.13 12.53 15.8 5.12 4.41 9.2 5.37 10.95 4.34 1.83-1.05 3.18-5.38 1.79-12.39-1.02-5.13-3.6-11.39-7.47-18.06-3.63-6.26-7.8-11.64-11.74-15.14-5.53-4.91-10-6.01-11.84-4.96-.93.54-1.62 1.89-1.95 3.8-.38 2.2-.26 5.02.35 8.13 1.1 5.58 3.7 12.14 7.38 18.48z"/></g><defs><clipPath id="clip0"><path fill="#fff" d="M0 0h64v56.95H0z"/></clipPath></defs></svg>
